src/images/whatsapp.svg

<svg  viewBox="0 0 308 308" fill="none" xmlns="http://www.w3.org/2000/svg">
<path d="M227.904 176.981C227.304 176.693 204.85 165.636 200.86 164.2C199.231 163.615 197.486 163.044 195.63 163.044C192.598 163.044 190.051 164.555 188.067 167.523C185.824 170.857 179.034 178.794 176.936 181.165C176.662 181.478 176.288 181.852 176.064 181.852C175.863 181.852 172.388 180.421 171.336 179.964C147.249 169.501 128.966 144.34 126.459 140.097C126.101 139.487 126.086 139.21 126.083 139.21C126.171 138.887 126.981 138.075 127.399 137.656C128.622 136.446 129.947 134.851 131.229 133.308C131.836 132.577 132.444 131.845 133.041 131.155C134.901 128.991 135.729 127.311 136.689 125.365L137.192 124.354C139.536 119.697 137.534 115.767 136.887 114.498C136.356 113.436 126.875 90.554 125.867 88.15C123.443 82.349 120.24 79.648 115.789 79.648C115.376 79.648 115.789 79.648 114.057 79.721C111.948 79.81 100.463 81.322 95.385 84.523C90 87.918 80.89 98.74 80.89 117.772C80.89 134.901 91.76 151.074 96.427 157.225C96.543 157.38 96.756 157.695 97.065 158.147C114.938 184.249 137.219 203.593 159.806 212.616C181.551 221.302 191.848 222.306 197.702 222.306H197.703C200.163 222.306 202.132 222.113 203.869 221.942L204.971 221.837C212.483 221.171 228.991 212.617 232.746 202.182C235.704 193.963 236.484 184.983 234.516 181.724C233.168 179.508 230.845 178.393 227.904 176.981Z" fill="#26EA3A"/>
<path d="M156.734 0C73.3178 0 5.45377 67.354 5.45377 150.143C5.45377 176.92 12.6198 203.131 26.1948 226.071L0.211768 302.716C-0.272232 304.145 0.0877677 305.725 1.14477 306.801C1.90777 307.58 2.94277 308 3.99977 308C4.40477 308 4.81277 307.939 5.21077 307.812L85.1308 282.416C107.001 294.101 131.719 300.269 156.735 300.269C240.143 300.27 308 232.923 308 150.143C308 67.354 240.143 0 156.734 0ZM156.734 268.994C133.195 268.994 110.396 262.197 90.7978 249.337C90.1388 248.904 89.3738 248.682 88.6038 248.682C88.1968 248.682 87.7888 248.744 87.3918 248.87L47.3568 261.596L60.2808 223.467C60.6988 222.233 60.4898 220.872 59.7198 219.82C44.7958 199.428 36.9068 175.335 36.9068 150.143C36.9068 84.6 90.6608 31.276 156.733 31.276C222.797 31.276 276.545 84.6 276.545 150.143C276.546 215.678 222.799 268.994 156.734 268.994Z" fill="#26EA3A"/>
</svg>

<!-- icon666.com - MILLIONS vector ICONS FREE --><svg version="1.1" id="Layer_1" xmlns="http://www.w3.org/2000/svg" xmlns:xlink="http://www.w3.org/1999/xlink" x="0px" y="0px" viewBox="0 0 308 308" style="enable-background:new 0 0 308 308;" xml:space="preserve"><g id="XMLID_468_"><path id="XMLID_469_" d="M227.904,176.981c-0.6-0.288-23.054-11.345-27.044-12.781c-1.629-0.585-3.374-1.156-5.23-1.156 c-3.032,0-5.579,1.511-7.563,4.479c-2.243,3.334-9.033,11.271-11.131,13.642c-0.274,0.313-0.648,0.687-0.872,0.687 c-0.201,0-3.676-1.431-4.728-1.888c-24.087-10.463-42.37-35.624-44.877-39.867c-0.358-0.61-0.373-0.887-0.376-0.887 c0.088-0.323,0.898-1.135,1.316-1.554c1.223-1.21,2.548-2.805,3.83-4.348c0.607-0.731,1.215-1.463,1.812-2.153 c1.86-2.164,2.688-3.844,3.648-5.79l0.503-1.011c2.344-4.657,0.342-8.587-0.305-9.856c-0.531-1.062-10.012-23.944-11.02-26.348 c-2.424-5.801-5.627-8.502-10.078-8.502c-0.413,0,0,0-1.732,0.073c-2.109,0.089-13.594,1.601-18.672,4.802 c-5.385,3.395-14.495,14.217-14.495,33.249c0,17.129,10.87,33.302,15.537,39.453c0.116,0.155,0.329,0.47,0.638,0.922 c17.873,26.102,40.154,45.446,62.741,54.469c21.745,8.686,32.042,9.69,37.896,9.69c0.001,0,0.001,0,0.001,0 c2.46,0,4.429-0.193,6.166-0.364l1.102-0.105c7.512-0.666,24.02-9.22,27.775-19.655c2.958-8.219,3.738-17.199,1.77-20.458 C233.168,179.508,230.845,178.393,227.904,176.981z"></path><path id="XMLID_470_" d="M156.734,0C73.318,0,5.454,67.354,5.454,150.143c0,26.777,7.166,52.988,20.741,75.928L0.212,302.716 c-0.484,1.429-0.124,3.009,0.933,4.085C1.908,307.58,2.943,308,4,308c0.405,0,0.813-0.061,1.211-0.188l79.92-25.396 c21.87,11.685,46.588,17.853,71.604,17.853C240.143,300.27,308,232.923,308,150.143C308,67.354,240.143,0,156.734,0z M156.734,268.994c-23.539,0-46.338-6.797-65.936-19.657c-0.659-0.433-1.424-0.655-2.194-0.655c-0.407,0-0.815,0.062-1.212,0.188 l-40.035,12.726l12.924-38.129c0.418-1.234,0.209-2.595-0.561-3.647c-14.924-20.392-22.813-44.485-22.813-69.677 c0-65.543,53.754-118.867,119.826-118.867c66.064,0,119.812,53.324,119.812,118.867 C276.546,215.678,222.799,268.994,156.734,268.994z"></path></g></svg>
